PortfolioPage/assets/social/github.svg

<svg xmlns="http://www.w3.org/2000/svg" width="26" height="26" fill="none">
  <path fill="#696969" fill-rule="evenodd" d="M13 0C5.8175 0 0 5.8175 0 13c0 5.7525 3.72125 10.6112 8.88875 12.3337.65.1138.89375-.2762.89375-.6175 0-.3087-.01625-1.3325-.01625-2.4212C6.5 22.8962 5.655 21.4987 5.395 20.7675c-.14625-.3738-.78-1.5275-1.3325-1.8363-.455-.2437-1.105-.845-.01625-.8612 1.02375-.0163 1.755.9425 1.99875 1.3325 1.17 1.9662 3.03875 1.4137 3.78625 1.0725.11375-.845.45505-1.4138.82875-1.7388-2.8925-.325-5.915-1.4462-5.915-6.4187 0-1.4138.50375-2.58375 1.3325-3.49375-.13-.325-.585-1.6575.13-3.445 0 0 1.08875-.34125 3.575 1.3325 1.04-.2925 2.145-.43875 3.25-.43875s2.21.14625 3.25.43875c2.4863-1.69 3.575-1.3325 3.575-1.3325.715 1.7875.26 3.12.13 3.445.8287.91 1.3325 2.06375 1.3325 3.49375 0 4.9887-3.0388 6.0937-5.9312 6.4187.4712.4063.8775 1.1863.8775 2.405 0 1.7388-.0163 3.1363-.0163 3.575 0 .3413.2437.7475.8938.6175C22.2788 23.6112 26 18.7362 26 13c0-7.1825-5.8175-13-13-13Z" clip-rule="evenodd"/>
</svg>

<svg width="26" height="26" viewBox="0 0 26 26" fill="none" xmlns="http://www.w3.org/2000/svg">
    <path fill-rule="evenodd" clip-rule="evenodd" d="M13 0C5.8175 0 0 5.8175 0 13C0 18.7525 3.72125 23.6112 8.88875 25.3337C9.53875 25.4475 9.7825 25.0575 9.7825 24.7162C9.7825 24.4075 9.76625 23.3837 9.76625 22.295C6.5 22.8962 5.655 21.4987 5.395 20.7675C5.24875 20.3937 4.615 19.24 4.0625 18.9312C3.6075 18.6875 2.9575 18.0862 4.04625 18.07C5.07 18.0537 5.80125 19.0125 6.045 19.4025C7.215 21.3687 9.08375 20.8162 9.83125 20.475C9.945 19.63 10.2863 19.0612 10.66 18.7362C7.7675 18.4112 4.745 17.29 4.745 12.3175C4.745 10.9037 5.24875 9.73375 6.0775 8.82375C5.9475 8.49875 5.4925 7.16625 6.2075 5.37875C6.2075 5.37875 7.29625 5.0375 9.7825 6.71125C10.8225 6.41875 11.9275 6.2725 13.0325 6.2725C14.1375 6.2725 15.2425 6.41875 16.2825 6.71125C18.7688 5.02125 19.8575 5.37875 19.8575 5.37875C20.5725 7.16625 20.1175 8.49875 19.9875 8.82375C20.8162 9.73375 21.32 10.8875 21.32 12.3175C21.32 17.3062 18.2812 18.4112 15.3888 18.7362C15.86 19.1425 16.2663 19.9225 16.2663 21.1412C16.2663 22.88 16.25 24.2775 16.25 24.7162C16.25 25.0575 16.4937 25.4637 17.1438 25.3337C22.2788 23.6112 26 18.7362 26 13C26 5.8175 20.1825 0 13 0Z" fill="#696969"/>
</svg>
